X: 14908
T: Gathering Part 1, The
R: reel
M: 4/4
K: Gmajor
G2'(3GED,' GFGA|BGcG dGcB|Aceg fdBA|(3cBA,' GA GFED|
GG (3AGE,' DEGA|BABc dGcB|Aceg fdef|(3gab,' ad ga '(3gdB,'|
G2'(3GED,' GFGA|BGcG dGcB|Aceg fdBA|(3cBA,' GA GFED|
GG (3AGE,' DEGA|BABc dGcB|Aceg fdef|(3gab,' ad g2 ga|

